src/assets/filled/Buildings2.svg

<svg width="24" height="24" viewBox="0 0 24 24"  xmlns="http://www.w3.org/2000/svg">
<path d="M10.6 4.15C10.6 4.34 10.44 4.5 10.25 4.5H9.12C6.96 4.5 5.2 6.26 5.2 8.42V17.65C5.2 17.84 5.04 18 4.85 18H4.15C2.96 18 2 17.04 2 15.85V4.15C2 2.96 2.96 2 4.15 2H8.45C9.64 2 10.6 2.96 10.6 4.15Z" />
<path d="M21.9999 4.15V15.85C21.9999 17.04 21.0399 18 19.8499 18H19.2199C19.0299 18 18.8699 17.84 18.8699 17.65V8.42C18.8699 6.26 17.1099 4.5 14.9499 4.5H13.7499C13.5599 4.5 13.3999 4.34 13.3999 4.15C13.3999 2.96 14.3599 2 15.5499 2H19.8499C21.0399 2 21.9999 2.96 21.9999 4.15Z" />
<path d="M14.95 6H9.11995C7.77995 6 6.69995 7.08 6.69995 8.42V19.58C6.69995 20.92 7.77995 22 9.11995 22H10.75C11.03 22 11.25 21.78 11.25 21.5V19C11.25 18.59 11.59 18.25 12 18.25C12.41 18.25 12.75 18.59 12.75 19V21.5C12.75 21.78 12.97 22 13.25 22H14.96C16.29 22 17.37 20.92 17.37 19.59V8.42C17.37 7.08 16.29 6 14.95 6ZM14 14.75H9.99995C9.58995 14.75 9.24995 14.41 9.24995 14C9.24995 13.59 9.58995 13.25 9.99995 13.25H14C14.41 13.25 14.75 13.59 14.75 14C14.75 14.41 14.41 14.75 14 14.75ZM14 11.75H9.99995C9.58995 11.75 9.24995 11.41 9.24995 11C9.24995 10.59 9.58995 10.25 9.99995 10.25H14C14.41 10.25 14.75 10.59 14.75 11C14.75 11.41 14.41 11.75 14 11.75Z" />
</svg>

<?xml version="1.0" encoding="UTF-8"?>
<svg width="24" height="24" viewBox="0 0 24 24" xmlns="http://www.w3.org/2000/svg">
 <path d="M10.6 4.15C10.6 4.34 10.44 4.5 10.25 4.5H9.12C6.96 4.5 5.2 6.26 5.2 8.42V17.65C5.2 17.84 5.04 18 4.85 18H4.15C2.96 18 2 17.04 2 15.85V4.15C2 2.96 2.96 2 4.15 2H8.45C9.64 2 10.6 2.96 10.6 4.15Z"/>
 <path d="m22 4.15v11.7c0 1.19-0.96 2.15-2.15 2.15h-0.63c-0.19 0-0.35-0.16-0.35-0.35v-9.23c0-2.16-1.76-3.92-3.92-3.92h-1.2c-0.19 0-0.35-0.16-0.35-0.35 0-1.19 0.96-2.15 2.15-2.15h4.3c1.19 0 2.15 0.96 2.15 2.15z"/>
 <path d="m14.95 6h-5.83c-1.34 0-2.42 1.08-2.42 2.42v11.16c0 1.34 1.08 2.42 2.42 2.42h1.63c0.28 0 0.5-0.22 0.5-0.5v-2.5c0-0.41 0.34-0.75 0.75-0.75s0.75 0.34 0.75 0.75v2.5c0 0.28 0.22 0.5 0.5 0.5h1.71c1.33 0 2.41-1.08 2.41-2.41v-11.17c0-1.34-1.08-2.42-2.42-2.42zm-0.95 8.75h-4c-0.41 0-0.75-0.34-0.75-0.75s0.34-0.75 0.75-0.75h4c0.41 0 0.75 0.34 0.75 0.75s-0.34 0.75-0.75 0.75zm0-3h-4c-0.41 0-0.75-0.34-0.75-0.75s0.34-0.75 0.75-0.75h4c0.41 0 0.75 0.34 0.75 0.75s-0.34 0.75-0.75 0.75z"/>
</svg>
